; generated by PrusaSlicer 2.0.0+win64 on 2020-03-27 at 16:06:17

; 

; external perimeters extrusion width = 0.60mm
; perimeters extrusion width = 0.50mm
; infill extrusion width = 0.50mm
; solid infill extrusion width = 0.50mm
; top infill extrusion width = 0.45mm
; first layer extrusion width = 0.42mm

M73 P0 R94
M73 Q0 S95
M201 X1000 Y1000 Z1000 E5000 ; sets maximum accelerations, mm/sec^2
M203 X200 Y200 Z12 E120 ; sets maximum feedrates, mm/sec
M204 P1250 R1250 T1250 ; sets acceleration (P, T) and retract acceleration (R), mm/sec^2
M205 X8.00 Y8.00 Z0.40 E4.50 ; sets the jerk limits, mm/sec
M205 S0 T0 ; sets the minimum extruding and travel feed rate, mm/sec
M107
M862.3 P "MK3S" ; printer model check
M862.1 P0.4 ; nozzle diameter check
M115 U3.8.1 ; tell printer latest fw version
G90 ; use absolute coordinates
M83 ; extruder relative mode
M104 S215 ; set extruder temp
M140 S60 ; set bed temp
M190 S60 ; wait for bed temp
M109 S215 ; wait for extruder temp
G28 W ; home all without mesh bed level
G80 ; mesh bed leveling
G1 Y-3.0 F1000.0 ; go outside print area
G92 E0.0
G1 X60.0 E9.0 F1000.0 ; intro line
M73 Q0 S95
M73 P0 R94
G1 X100.0 E12.5 F1000.0 ; intro line
G92 E0.0
M221 S95
M900 K30 ; Filament gcode
G21 ; set units to millimeters
G90 ; use absolute coordinates
M83 ; use relative distances for extrusion
;BEFORE_LAYER_CHANGE
G92 E0.0
;0.2


G1 E-0.80000 F2100.00000
G1 Z0.600 F10800.000
;AFTER_LAYER_CHANGE
;0.2
G1 X36.550 Y191.844
G1 Z0.200
G1 E0.80000 F2100.00000
M204 S1000
G1 F1200
G1 X35.900 Y191.319 E0.02620
G1 X27.390 Y181.065 E0.41779
G1 X26.711 Y180.135 E0.03612
G1 X13.273 Y155.788 E0.87194
G1 X12.522 Y154.068 E0.05883
G1 X12.195 Y152.897 E0.03814
G1 X11.944 Y150.850 E0.06465
G1 X10.794 Y128.635 E0.69747
G1 X11.805 Y124.119 E0.14510
G1 X16.767 Y107.483 E0.54432
G1 X18.436 Y103.058 E0.14829
G1 X68.695 Y17.263 E3.11763
G1 X69.394 Y16.205 E0.03976
G1 X70.175 Y15.226 E0.03926
G1 X71.822 Y13.629 E0.07195
G1 X73.119 Y12.676 E0.05044
G1 X74.153 Y12.066 E0.03765
G1 X75.260 Y11.538 E0.03845
G1 X76.562 Y11.060 E0.04349
G1 X78.698 Y10.573 E0.06868
G1 X136.611 Y2.954 E1.83148
G1 X162.196 Y4.974 E0.80469
G1 X196.362 Y13.105 E1.10118
G1 X220.024 Y23.021 E0.80439
G1 X220.434 Y23.251 E0.01475
G1 X220.785 Y23.564 E0.01475
G1 X229.053 Y34.205 E0.42249
G1 X229.707 Y35.166 E0.03646
G1 X242.339 Y59.928 E0.87159
G1 X243.034 Y61.675 E0.05894
G1 X243.323 Y62.864 E0.03837
G1 X243.506 Y64.907 E0.06431
G1 X243.932 Y87.144 E0.69735
G1 X242.764 Y91.658 E0.14621
G1 X237.262 Y108.125 E0.54435
G1 X235.494 Y112.401 E0.14509
G1 X182.411 Y196.604 E3.12095
G1 X181.697 Y197.611 E0.03873
G1 X180.884 Y198.564 E0.03926
G1 X179.208 Y200.088 E0.07103
G1 X177.861 Y201.014 E0.05124
G1 X176.807 Y201.590 E0.03765
G1 X175.674 Y202.085 E0.03880
G1 X174.367 Y202.517 E0.04315
G1 X172.217 Y202.934 E0.06868
G1 X120.895 Y209.281 E1.62142
G1 X95.302 Y208.116 E0.80327
G1 X60.619 Y201.056 E1.10975
G1 X36.606 Y191.865 E0.80619
G1 F8640
G1 X35.900 Y191.319 E-0.20613
G1 X34.368 Y189.473 E-0.55387
G1 E-0.04000 F2100.00000
G1 Z0.800 F10800.000
G1 X126.687 Y25.028
G1 Z0.200
G1 E0.80000 F2100.00000
G1 F1200
G1 X127.998 Y17.029 E0.25414
G1 X131.817 Y12.806 E0.17852
G1 X133.877 Y12.755 E0.06460
G1 X139.245 Y12.710 E0.16832
G1 X139.247 Y12.687 E0.00073
G1 X142.945 Y12.802 E0.11602
G1 X146.567 Y12.992 E0.11372
G1 X150.185 Y13.259 E0.11373
G1 X153.796 Y13.602 E0.11373
G1 X160.182 Y14.339 E0.20156
G1 X163.829 Y14.878 E0.11562
G1 X167.693 Y15.541 E0.12291
G1 X171.538 Y16.291 E0.12282
G1 X175.830 Y17.241 E0.13785
G1 X179.179 Y18.055 E0.10807
G1 X182.967 Y19.067 E0.12291
G1 X186.730 Y20.165 E0.12291
G1 X190.467 Y21.350 E0.12291
G1 X196.891 Y23.548 E0.21289
G1 X196.906 Y23.493 E0.00179
G1 X200.010 Y24.664 E0.10404
G1 X203.376 Y26.016 E0.11373
G1 X206.713 Y27.439 E0.11373
G1 X210.018 Y28.932 E0.11372
G1 X213.358 Y30.526 E0.11602
G1 X213.288 Y30.693 E0.00569
G1 X218.041 Y33.197 E0.16846
G1 X220.322 Y34.448 E0.08158
G1 X221.309 Y39.699 E0.16751
G1 X221.275 Y39.845 E0.00469
G1 X218.806 Y47.405 E0.24935
G1 X217.472 Y46.086 E0.05882
G1 X215.281 Y44.043 E0.09391
G1 X213.021 Y42.071 E0.09406
G1 X210.982 Y40.408 E0.08249
G1 X208.314 Y38.359 E0.10548
G1 X205.866 Y36.618 E0.09420
G1 X203.365 Y34.961 E0.09406
G1 X200.811 Y33.388 E0.09406
G1 X198.207 Y31.899 E0.09406
G1 X195.554 Y30.498 E0.09406
G1 X192.857 Y29.185 E0.09406
G1 X190.118 Y27.962 E0.09406
G1 X187.340 Y26.830 E0.09406
G1 X184.526 Y25.790 E0.09406
G1 X181.679 Y24.844 E0.09406
G1 X178.803 Y23.992 E0.09406
G1 X175.900 Y23.236 E0.09406
G1 X172.973 Y22.576 E0.09406
G1 X170.027 Y22.013 E0.09406
G1 X167.063 Y21.548 E0.09406
G1 X164.086 Y21.181 E0.09406
G1 X161.098 Y20.912 E0.09406
G1 X158.103 Y20.743 E0.09406
G1 X155.104 Y20.672 E0.09406
G1 X152.105 Y20.700 E0.09406
G1 X149.108 Y20.828 E0.09406
G1 X146.116 Y21.054 E0.09406
G1 X143.134 Y21.379 E0.09406
G1 X140.164 Y21.803 E0.09406
G1 X137.210 Y22.324 E0.09406
G1 X134.275 Y22.943 E0.09406
G1 X131.361 Y23.658 E0.09406
G1 X128.478 Y24.468 E0.09391
G1 X126.745 Y25.010 E0.05694
G1 X126.217 Y25.570 F10800.000
G1 F1200
G1 X127.595 Y17.082 E0.26960
G1 X127.657 Y16.865 E0.00709
G1 X127.788 Y16.681 E0.00709
G1 X131.646 Y12.434 E0.17990
G1 X133.870 Y12.377 E0.06976
G1 X138.896 Y12.336 E0.15758
G1 X138.899 Y12.298 E0.00117
G1 X142.961 Y12.425 E0.12742
G1 X146.591 Y12.616 E0.11397
G1 X150.217 Y12.883 E0.11398
G1 X153.835 Y13.227 E0.11398
G1 X159.836 Y13.925 E0.18942
G1 X159.838 Y13.907 E0.00058
G1 X163.889 Y14.506 E0.12841
G1 X167.761 Y15.170 E0.12318
G1 X171.615 Y15.921 E0.12310
G1 X175.916 Y16.874 E0.13812
G1 X179.273 Y17.689 E0.10832
G1 X183.068 Y18.704 E0.12318
G1 X186.839 Y19.805 E0.12318
G1 X190.585 Y20.991 E0.12318
G1 X196.634 Y23.062 E0.20047
G1 X196.652 Y22.994 E0.00218
G1 X200.147 Y24.313 E0.11712
G1 X203.520 Y25.668 E0.11398
G1 X206.864 Y27.093 E0.11398
G1 X210.177 Y28.590 E0.11397
G1 X213.845 Y30.340 E0.12742
G1 X213.769 Y30.520 E0.00613
G1 X218.220 Y32.865 E0.15772
G1 X220.659 Y34.203 E0.08725
G1 X221.675 Y39.551 E0.17067
G1 X221.683 Y39.753 E0.00632
G1 X221.639 Y39.946 E0.00621
G1 X218.975 Y48.102 E0.26903
G1 X217.211 Y46.358 E0.07778
G1 X215.029 Y44.323 E0.09354
G1 X212.778 Y42.360 E0.09367
G1 X210.748 Y40.704 E0.08212
G1 X208.090 Y38.662 E0.10509
G1 X205.652 Y36.929 E0.09379
G1 X203.162 Y35.279 E0.09367
M73 Q1 S94
G1 X200.619 Y33.712 E0.09367
G1 X198.025 Y32.230 E0.09367
G1 X195.383 Y30.834 E0.09367
G1 X192.697 Y29.527 E0.09367
G1 X189.970 Y28.309 E0.09367
G1 X187.203 Y27.181 E0.09367
G1 X184.401 Y26.146 E0.09367
G1 X181.566 Y25.204 E0.09367
G1 X178.702 Y24.355 E0.09367
M73 P1 R93
G1 X175.811 Y23.602 E0.09367
G1 X172.897 Y22.945 E0.09367
G1 X169.962 Y22.385 E0.09367
G1 X167.011 Y21.921 E0.09367
G1 X164.046 Y21.556 E0.09367
G1 X161.071 Y21.289 E0.09367
G1 X158.088 Y21.120 E0.09367
G1 X155.102 Y21.049 E0.09367
G1 X152.114 Y21.077 E0.09367
G1 X149.130 Y21.204 E0.09367
G1 X146.151 Y21.430 E0.09367
G1 X143.181 Y21.754 E0.09367
G1 X140.224 Y22.175 E0.09367
G1 X137.282 Y22.694 E0.09367
G1 X134.359 Y23.310 E0.09367
G1 X131.457 Y24.023 E0.09367
G1 X128.585 Y24.829 E0.09354
G1 X126.275 Y25.552 E0.07590
G1 F8640
G1 X126.782 Y22.300 E-0.76000
G1 E-0.04000 F2100.00000
G1 Z0.800 F10800.000
G1 X214.251 Y30.348
G1 Z0.200
G1 E0.80000 F2100.00000
G1 F1200
G1 X218.398 Y32.533 E0.14698
G1 X220.997 Y33.959 E0.09295
G1 X222.048 Y39.496 E0.17670
G1 X222.058 Y39.806 E0.00972
G1 X222.003 Y40.047 E0.00774
G1 X219.320 Y48.261 E0.27094
G1 X219.268 Y48.385 E0.00424
G1 X219.198 Y48.481 E0.00370
G1 X219.048 Y48.572 E0.00552
G1 X218.932 Y48.590 E0.00366
G1 X216.950 Y46.630 E0.08741
G1 X214.776 Y44.603 E0.09318
G1 X212.534 Y42.648 E0.09328
G1 X210.514 Y41.000 E0.08175
G1 X207.866 Y38.966 E0.10469
G1 X205.439 Y37.240 E0.09338
G1 X202.959 Y35.597 E0.09328
G1 X200.426 Y34.036 E0.09328
G1 X197.843 Y32.560 E0.09328
G1 X195.213 Y31.171 E0.09328
G1 X192.538 Y29.868 E0.09328
G1 X189.822 Y28.655 E0.09328
G1 X187.067 Y27.533 E0.09328
G1 X184.276 Y26.502 E0.09328
G1 X181.453 Y25.563 E0.09328
G1 X178.601 Y24.719 E0.09328
G1 X175.722 Y23.969 E0.09328
G1 X172.820 Y23.314 E0.09328
G1 X169.898 Y22.756 E0.09328
G1 X166.959 Y22.295 E0.09328
G1 X164.006 Y21.931 E0.09328
G1 X161.043 Y21.665 E0.09328
G1 X158.073 Y21.496 E0.09328
G1 X155.099 Y21.426 E0.09328
G1 X152.124 Y21.454 E0.09328
G1 X149.152 Y21.581 E0.09328
G1 X146.186 Y21.805 E0.09328
G1 X143.228 Y22.128 E0.09328
G1 X140.283 Y22.548 E0.09328
G1 X137.353 Y23.065 E0.09328
G1 X134.442 Y23.678 E0.09328
G1 X131.553 Y24.387 E0.09328
G1 X128.692 Y25.191 E0.09318
G1 X126.032 Y26.023 E0.08741
G1 X125.937 Y25.954 E0.00366
G1 X125.868 Y25.859 E0.00370
G1 X125.827 Y25.687 E0.00552
G1 X127.225 Y17.008 E0.27563
G1 X127.317 Y16.701 E0.01007
G1 X127.500 Y16.437 E0.01007
G1 X131.476 Y12.061 E0.18539
G1 X133.864 Y12.000 E0.07491
G1 X138.547 Y11.962 E0.14685
G1 X138.551 Y11.910 E0.00161
G1 X142.977 Y12.048 E0.13882
G1 X146.615 Y12.239 E0.11422
G1 X150.248 Y12.507 E0.11423
G1 X153.875 Y12.852 E0.11423
G1 X159.491 Y13.505 E0.17727
G1 X159.493 Y13.474 E0.00097
G1 X163.948 Y14.134 E0.14121
G1 X167.829 Y14.799 E0.12345
G1 X171.691 Y15.552 E0.12338
G1 X176.001 Y16.507 E0.13839
G1 X179.366 Y17.324 E0.10858
G1 X183.170 Y18.341 E0.12345
G1 X186.949 Y19.444 E0.12345
G1 X190.703 Y20.633 E0.12345
G1 X196.377 Y22.575 E0.18804
G1 X196.399 Y22.496 E0.00258
G1 X200.284 Y23.961 E0.13021
G1 X203.665 Y25.319 E0.11423
G1 X207.016 Y26.748 E0.11423
G1 X210.336 Y28.248 E0.11422
G1 X214.332 Y30.155 E0.13882
G1 X214.274 Y30.293 E0.00468
G1 X214.732 Y30.175 F10800.000
G1 F1200
G1 X218.577 Y32.201 E0.13625
G1 X221.335 Y33.718 E0.09870
G1 X222.421 Y39.441 E0.18265
G1 X222.444 Y39.659 E0.00687
G1 X222.433 Y39.859 E0.00629
G1 X222.367 Y40.147 E0.00927
G1 X219.674 Y48.392 E0.27194
G1 X219.605 Y48.558 E0.00564
G1 X219.465 Y48.749 E0.00743
G1 X219.272 Y48.888 E0.00743
G1 X219.047 Y48.960 E0.00743
G1 X218.928 Y48.968 E0.00373
G1 X218.754 Y48.944 E0.00550
G1 X216.689 Y46.902 E0.09108
G1 X214.524 Y44.884 E0.09281
G1 X212.291 Y42.936 E0.09289
G1 X210.280 Y41.295 E0.08138
G1 X207.642 Y39.269 E0.10430
G1 X205.225 Y37.551 E0.09296
G1 X202.756 Y35.914 E0.09289
G1 X200.234 Y34.360 E0.09289
G1 X197.662 Y32.891 E0.09289
G1 X195.042 Y31.507 E0.09289
G1 X192.379 Y30.210 E0.09289
G1 X189.674 Y29.002 E0.09289
G1 X186.930 Y27.884 E0.09289
G1 X184.151 Y26.857 E0.09289
G1 X181.340 Y25.923 E0.09289
G1 X178.500 Y25.082 E0.09289
G1 X175.633 Y24.335 E0.09289
G1 X172.743 Y23.684 E0.09289
G1 X169.833 Y23.128 E0.09289
G1 X166.906 Y22.668 E0.09289
G1 X163.966 Y22.306 E0.09289
G1 X161.016 Y22.041 E0.09289
G1 X158.058 Y21.873 E0.09289
G1 X155.096 Y21.803 E0.09289
G1 X152.134 Y21.831 E0.09289
G1 X149.174 Y21.957 E0.09289
G1 X146.220 Y22.181 E0.09289
G1 X143.275 Y22.502 E0.09289
G1 X140.342 Y22.920 E0.09289
G1 X137.425 Y23.435 E0.09289
G1 X134.526 Y24.046 E0.09289
G1 X131.649 Y24.752 E0.09289
G1 X128.800 Y25.552 E0.09281
G1 X126.027 Y26.419 E0.09108
G1 X125.862 Y26.361 E0.00550
G1 X125.760 Y26.299 E0.00373
G1 X125.593 Y26.132 E0.00743
G1 X125.485 Y25.920 E0.00743
G1 X125.449 Y25.686 E0.00743
G1 X125.464 Y25.507 E0.00564
G1 X126.855 Y16.934 E0.27230
G1 X126.909 Y16.704 E0.00741
G1 X126.976 Y16.536 E0.00567
G1 X127.066 Y16.380 E0.00567
G1 X127.212 Y16.194 E0.00741
G1 X131.305 Y11.688 E0.19087
G1 X133.858 Y11.623 E0.08007
G1 X138.199 Y11.587 E0.13611
G1 X138.204 Y11.522 E0.00205
G1 X142.993 Y11.672 E0.15022
G1 X146.639 Y11.863 E0.11447
G1 X150.280 Y12.131 E0.11448
G1 X153.915 Y12.477 E0.11448
G1 X159.146 Y13.085 E0.16513
G1 X159.149 Y13.042 E0.00136
G1 X164.008 Y13.761 E0.15400
G1 X167.897 Y14.428 E0.12372
G1 X171.768 Y15.183 E0.12367
G1 X176.086 Y16.139 E0.13866
G1 X179.459 Y16.959 E0.10883
G1 X183.271 Y17.977 E0.12372
G1 X187.059 Y19.083 E0.12372
G1 X190.821 Y20.275 E0.12372
G1 X196.120 Y22.089 E0.17561
G1 X196.145 Y21.997 E0.00298
G1 X200.421 Y23.610 E0.14329
G1 X203.809 Y24.971 E0.11448
G1 X207.168 Y26.403 E0.11448
G1 X210.495 Y27.905 E0.11448
G1 X214.819 Y29.970 E0.15022
G1 X214.755 Y30.120 E0.00512
G1 X215.214 Y30.003 F10800.000
G1 F1200
G1 X218.755 Y31.869 E0.12551
G1 X221.321 Y33.276 E0.09175
G1 X223.841 Y34.714 E0.09097
G1 X224.477 Y35.130 E0.02382
G1 X225.121 Y35.664 E0.02622
G1 X225.575 Y36.121 E0.02021
G1 X226.041 Y36.696 E0.02320
G1 X226.442 Y37.312 E0.02307
G1 X226.816 Y38.055 E0.02608
G1 X227.075 Y38.745 E0.02309
G1 X227.261 Y39.460 E0.02316
G1 X227.372 Y40.190 E0.02316
G1 X227.407 Y40.928 E0.02317
G1 X227.365 Y41.666 E0.02317
G1 X227.247 Y42.394 E0.02312
G1 X226.760 Y44.176 E0.05792
G1 X226.567 Y45.264 E0.03464
G1 X226.476 Y46.366 E0.03467
G1 X226.488 Y47.471 E0.03467
G1 X226.603 Y48.571 E0.03467
G1 X226.819 Y49.653 E0.03460
G1 X227.092 Y50.584 E0.03042
G1 X227.549 Y51.737 E0.03888
G1 X228.056 Y52.719 E0.03466
G1 X228.573 Y53.537 E0.03034
G1 X229.241 Y54.415 E0.03458
G1 X229.990 Y55.228 E0.03467
G1 X230.811 Y55.969 E0.03467
G1 X231.698 Y56.629 E0.03467
G1 X232.642 Y57.204 E0.03467
G1 X233.635 Y57.688 E0.03463
G1 X235.366 Y58.346 E0.05805
G1 X236.027 Y58.682 E0.02325
G1 X236.648 Y59.083 E0.02317
G1 X237.297 Y59.616 E0.02634
G1 X237.754 Y60.074 E0.02030
G1 X238.223 Y60.650 E0.02326
G1 X238.677 Y61.352 E0.02622
G1 X239.009 Y62.016 E0.02326
G1 X239.239 Y62.621 E0.02030
G1 X239.457 Y63.432 E0.02634
G1 X239.568 Y64.163 E0.02319
G1 X239.599 Y64.811 E0.02033
G1 X239.558 Y65.675 E0.02712
G1 X239.148 Y69.048 E0.10654
G1 X238.658 Y72.440 E0.10743
G1 X238.093 Y75.819 E0.10743
G1 X237.452 Y79.185 E0.10743
G1 X236.736 Y82.535 E0.10743
G1 X235.686 Y86.959 E0.14255
G1 X234.406 Y91.579 E0.15030
G1 X233.322 Y95.148 E0.11698
G1 X232.287 Y98.279 E0.10338
G1 X230.894 Y102.205 E0.13061
G1 X229.158 Y106.706 E0.15126
G1 X227.236 Y111.169 E0.15235
G1 X225.660 Y114.594 E0.11823
G1 X223.999 Y117.980 E0.11824
G1 X222.475 Y120.907 E0.10349
G1 X220.431 Y124.624 E0.13299
G1 X218.526 Y127.877 E0.11819
G1 X216.540 Y131.083 E0.11823
G1 X214.477 Y134.239 E0.11823
G1 X212.336 Y137.343 E0.11823
G1 X210.120 Y140.394 E0.11823
G1 X207.829 Y143.389 E0.11823
G1 X205.465 Y146.326 E0.11823
G1 X203.030 Y149.205 E0.11823
G1 X200.524 Y152.023 E0.11823
G1 X197.950 Y154.778 E0.11823
G1 X195.309 Y157.469 E0.11823
G1 X192.602 Y160.095 E0.11823
G1 X190.177 Y162.334 E0.10349
G1 X186.998 Y165.142 E0.13300
G1 X184.106 Y167.560 E0.11819
G1 X181.154 Y169.906 E0.11823
G1 X178.520 Y171.896 E0.10349
G1 X175.080 Y174.378 E0.13300
G1 X171.964 Y176.499 E0.11819
G1 X168.796 Y178.544 E0.11823
G1 X165.546 Y180.530 E0.11942
G1 X164.713 Y181.087 E0.03144
G1 X163.913 Y181.753 E0.03263
G1 X163.188 Y182.500 E0.03263
G1 X162.546 Y183.318 E0.03263
G1 X161.993 Y184.200 E0.03263
G1 X161.537 Y185.136 E0.03263
G1 X161.182 Y186.112 E0.03256
G1 X160.957 Y187.000 E0.02873
G1 X160.789 Y188.151 E0.03647
G1 X160.756 Y189.192 E0.03265
G1 X160.817 Y190.103 E0.02864
G1 X160.987 Y191.126 E0.03252
G1 X161.266 Y192.129 E0.03263
G1 X161.648 Y193.097 E0.03263
G1 X162.131 Y194.019 E0.03263
G1 X162.710 Y194.889 E0.03278
G1 X163.461 Y195.776 E0.03644
G1 X164.119 Y196.413 E0.02870
G1 X164.936 Y197.055 E0.03259
G1 X165.817 Y197.609 E0.03263
G1 X166.752 Y198.067 E0.03263
G1 X167.729 Y198.423 E0.03262
G1 X168.739 Y198.675 E0.03263
G1 X169.769 Y198.819 E0.03260
G1 X170.683 Y198.851 E0.02870
G1 X171.843 Y198.779 E0.03643
G1 X172.872 Y198.594 E0.03279
G1 X173.871 Y198.303 E0.03263
G1 X174.834 Y197.908 E0.03263
G1 X175.750 Y197.414 E0.03263
G1 X176.609 Y196.827 E0.03263
G1 X177.401 Y196.152 E0.03263
G1 X178.115 Y195.400 E0.03251
G1 X178.676 Y194.679 E0.02864
G1 X179.230 Y193.801 E0.03254
G1 X179.689 Y192.867 E0.03263
G1 X180.047 Y191.890 E0.03263
G1 X180.300 Y190.881 E0.03263
G1 X180.446 Y189.850 E0.03263
G1 X180.482 Y188.810 E0.03263
G1 X180.408 Y187.772 E0.03263
G1 X180.226 Y186.750 E0.03254
G1 X179.931 Y185.702 E0.03414
G1 X179.963 Y185.618 E0.00282
G1 X180.042 Y185.574 E0.00282
G1 X180.130 Y185.591 E0.00282
G1 X180.177 Y185.640 E0.00213
G1 X180.455 Y186.552 E0.02988
G1 X180.637 Y187.464 E0.02917
G1 X180.734 Y188.385 E0.02903
G1 X180.738 Y189.440 E0.03309
G1 X180.674 Y190.246 E0.02536
G1 X180.517 Y191.164 E0.02918
G1 X180.275 Y192.062 E0.02917
G1 X179.954 Y192.931 E0.02904
G1 X179.492 Y193.879 E0.03308
