; generated by PrusaSlicer 2.0.0+win64 on 2020-04-11 at 21:47:27

; 

; external perimeters extrusion width = 0.90mm
; perimeters extrusion width = 0.90mm
; infill extrusion width = 0.90mm
; solid infill extrusion width = 0.90mm
; top infill extrusion width = 0.80mm

M73 P0 R57
M73 Q0 S58
M201 X1000 Y1000 Z1000 E5000 ; sets maximum accelerations, mm/sec^2
M203 X200 Y200 Z12 E120 ; sets maximum feedrates, mm/sec
M204 P1250 R1250 T1250 ; sets acceleration (P, T) and retract acceleration (R), mm/sec^2
M205 X8.00 Y8.00 Z0.40 E4.50 ; sets the jerk limits, mm/sec
M205 S0 T0 ; sets the minimum extruding and travel feed rate, mm/sec
M107
M862.3 P "MK3S" ; printer model check
M862.1 P0.8 ; nozzle diameter check
M115 U3.8.1 ; tell printer latest fw version
G90 ; use absolute coordinates
M83 ; extruder relative mode
M104 S220 ; set extruder temp
M140 S65 ; set bed temp
M190 S65 ; wait for bed temp
M109 S220 ; wait for extruder temp
G28 W ; home all without mesh bed level
G80 ; mesh bed leveling
G1 Y-3.0 F1000.0 ; go outside print area
G92 E0.0
G1 X60.0 E9.0 F1000.0 ; intro line
M73 Q0 S58
M73 P0 R57
G1 X100.0 E12.5 F1000.0 ; intro line
G92 E0.0
M221 S95
M900 K30 ; Filament gcode
G21 ; set units to millimeters
G90 ; use absolute coordinates
M83 ; use relative distances for extrusion
;BEFORE_LAYER_CHANGE
G92 E0.0
;0.3


G1 E-0.80000 F2100.00000
G1 Z0.600 F10800.000
;AFTER_LAYER_CHANGE
;0.3
G1 X181.367 Y21.684
G1 Z0.300
G1 E0.80000 F2100.00000
M204 S1000
G1 F1200
G1 X182.158 Y21.895 E0.08533
G1 X185.845 Y22.971 E0.40035
G1 X189.507 Y24.131 E0.40034
G1 X197.581 Y26.891 E0.88927
G1 X198.970 Y27.416 E0.15478
G1 X202.258 Y28.736 E0.36925
G1 X205.517 Y30.126 E0.36928
G1 X208.746 Y31.584 E0.36925
G1 X209.559 Y31.972 E0.09392
G1 X209.532 Y32.037 E0.00742
G1 X216.674 Y35.802 E0.84148
G1 X217.691 Y36.360 E0.12091
G1 X218.289 Y39.515 E0.33469
G1 X217.460 Y42.053 E0.27826
G1 X214.918 Y39.823 E0.35246
G1 X212.518 Y37.865 E0.32278
G1 X210.055 Y35.988 E0.32278
G1 X207.531 Y34.193 E0.32278
G1 X204.949 Y32.482 E0.32278
G1 X202.313 Y30.858 E0.32278
G1 X199.624 Y29.321 E0.32278
G1 X196.885 Y27.875 E0.32278
G1 X194.101 Y26.519 E0.32278
G1 X191.273 Y25.256 E0.32278
G1 X188.405 Y24.087 E0.32278
G1 X185.500 Y23.014 E0.32278
G1 X182.561 Y22.037 E0.32278
G1 X181.482 Y21.718 E0.11726
G1 F8640
G1 X182.158 Y21.895 E-0.16136
G1 X184.647 Y22.621 E-0.59864
G1 E-0.04000 F2100.00000
G1 Z0.900 F10800.000
G1 X171.756 Y19.349
G1 Z0.300
G1 E0.80000 F2100.00000
G1 F1200
G1 X170.531 Y19.115 E0.12993
G1 X167.472 Y18.635 E0.32278
G1 X164.398 Y18.256 E0.32278
G1 X161.313 Y17.979 E0.32278
G1 X158.221 Y17.803 E0.32278
G1 X155.125 Y17.730 E0.32278
G1 X152.028 Y17.760 E0.32278
G1 X148.934 Y17.891 E0.32278
G1 X145.846 Y18.125 E0.32278
G1 X142.767 Y18.461 E0.32278
G1 X139.701 Y18.898 E0.32278
G1 X136.651 Y19.436 E0.32278
G1 X133.621 Y20.075 E0.32278
G1 X130.339 Y20.890 E0.35247
G1 X130.750 Y18.356 E0.26762
G1 X133.149 Y15.715 E0.37181
G1 X139.788 Y15.646 E0.69206
G1 X142.859 Y15.742 E0.32019
G1 X146.397 Y15.929 E0.36925
G1 X149.931 Y16.189 E0.36928
G1 X153.458 Y16.524 E0.36925
G1 X159.973 Y17.281 E0.68364
G1 X163.406 Y17.790 E0.36165
G1 X167.192 Y18.439 E0.40034
G1 X170.962 Y19.175 E0.40035
G1 X171.638 Y19.323 E0.07220
G1 F8640
G1 X170.531 Y19.115 E-0.26016
G1 X168.393 Y18.779 E-0.49984
G1 E-0.04000 F2100.00000
G1 Z0.900 F10800.000
G1 X217.848 Y43.557
G1 Z0.300
G1 E0.80000 F2100.00000
G1 F1200
G1 X216.692 Y42.479 E0.16471
G1 X214.379 Y40.462 E0.31990
G1 X212.000 Y38.521 E0.31990
G1 X209.559 Y36.661 E0.31990
G1 X207.058 Y34.882 E0.31990
G1 X204.499 Y33.186 E0.31990
G1 X201.886 Y31.577 E0.31990
G1 X199.221 Y30.054 E0.31990
G1 X196.507 Y28.620 E0.31990
G1 X193.747 Y27.276 E0.31990
G1 X190.945 Y26.025 E0.31990
G1 X188.102 Y24.867 E0.31990
G1 X185.223 Y23.803 E0.31990
G1 X182.310 Y22.835 E0.31990
G1 X179.367 Y21.963 E0.31990
G1 X176.397 Y21.190 E0.31990
G1 X173.403 Y20.514 E0.31990
G1 X170.388 Y19.938 E0.31990
G1 X167.356 Y19.462 E0.31990
G1 X164.309 Y19.087 E0.31990
G1 X161.252 Y18.812 E0.31990
G1 X158.188 Y18.638 E0.31990
G1 X155.119 Y18.566 E0.31990
G1 X152.050 Y18.595 E0.31990
G1 X148.983 Y18.726 E0.31990
G1 X145.923 Y18.957 E0.31990
G1 X142.871 Y19.290 E0.31990
G1 X139.833 Y19.723 E0.31990
G1 X136.810 Y20.257 E0.31990
G1 X133.807 Y20.890 E0.31990
G1 X130.826 Y21.621 E0.31990
G1 X129.304 Y22.049 E0.16472
G1 X129.965 Y17.977 E0.42990
G1 X132.770 Y14.889 E0.43487
G1 X133.882 Y14.860 E0.11590
G1 X139.798 Y14.810 E0.61661
G1 X142.894 Y14.908 E0.32285
G1 X146.450 Y15.094 E0.37108
G1 X150.001 Y15.356 E0.37111
G1 X153.545 Y15.693 E0.37109
G1 X160.083 Y16.452 E0.68593
G1 X163.538 Y16.964 E0.36402
G1 X167.342 Y17.617 E0.40232
G1 X171.131 Y18.357 E0.40233
G1 X174.902 Y19.182 E0.40234
G1 X178.653 Y20.094 E0.40234
G1 X182.383 Y21.090 E0.40233
G1 X186.089 Y22.172 E0.40233
G1 X189.769 Y23.337 E0.40232
G1 X197.864 Y26.105 E0.89163
G1 X199.274 Y26.637 E0.15707
G1 X202.577 Y27.964 E0.37109
G1 X205.853 Y29.361 E0.37111
G1 X209.098 Y30.826 E0.37108
G1 X210.639 Y31.561 E0.17791
G1 X210.599 Y31.655 E0.01067
G1 X217.070 Y35.066 E0.76240
G1 X218.439 Y35.817 E0.16274
G1 X219.150 Y39.571 E0.39815
G1 X217.885 Y43.443 E0.42458
G1 F8640
G1 X216.692 Y42.479 E-0.35414
G1 X215.367 Y41.324 E-0.40586
G1 E-0.04000 F2100.00000
G1 Z0.900 F10800.000
G1 X218.236 Y45.061
G1 Z0.300
G1 E0.80000 F2100.00000
G1 F1200
G1 X216.132 Y43.100 E0.29973
G1 X213.840 Y41.100 E0.31702
G1 X211.483 Y39.178 E0.31703
G1 X209.064 Y37.334 E0.31702
G1 X206.585 Y35.571 E0.31703
G1 X204.049 Y33.891 E0.31702
G1 X201.459 Y32.295 E0.31702
G1 X198.818 Y30.786 E0.31702
G1 X196.129 Y29.365 E0.31702
G1 X193.394 Y28.034 E0.31702
G1 X190.617 Y26.793 E0.31702
G1 X187.800 Y25.646 E0.31702
G1 X184.946 Y24.591 E0.31703
G1 X182.060 Y23.632 E0.31702
G1 X179.143 Y22.768 E0.31702
G1 X176.200 Y22.002 E0.31702
G1 X173.232 Y21.333 E0.31703
G1 X170.245 Y20.762 E0.31702
G1 X167.240 Y20.290 E0.31702
G1 X164.221 Y19.918 E0.31703
G1 X161.191 Y19.646 E0.31702
G1 X158.154 Y19.474 E0.31702
G1 X155.113 Y19.402 E0.31702
G1 X152.072 Y19.431 E0.31703
G1 X149.033 Y19.560 E0.31702
G1 X145.999 Y19.790 E0.31702
G1 X142.976 Y20.119 E0.31702
G1 X139.964 Y20.549 E0.31702
G1 X136.969 Y21.077 E0.31702
G1 X133.992 Y21.704 E0.31703
G1 X131.038 Y22.430 E0.31702
G1 X128.269 Y23.207 E0.29973
G1 X129.180 Y17.599 E0.59217
G1 X132.392 Y14.062 E0.49793
G1 X133.868 Y14.025 E0.15387
G1 X139.808 Y13.974 E0.61908
G1 X142.929 Y14.073 E0.32551
G1 X146.502 Y14.260 E0.37291
G1 X150.071 Y14.524 E0.37294
G1 X153.633 Y14.862 E0.37292
G1 X160.192 Y15.624 E0.68821
G1 X163.670 Y16.139 E0.36638
G1 X167.493 Y16.795 E0.40431
G1 X171.300 Y17.539 E0.40432
G1 X175.090 Y18.368 E0.40432
G1 X175.744 Y18.527 E0.07011
G1 X178.860 Y19.284 E0.33422
G1 X182.608 Y20.285 E0.40432
G1 X186.332 Y21.372 E0.40432
G1 X190.030 Y22.543 E0.40431
G1 X197.757 Y25.185 E0.85106
G1 X197.760 Y25.173 E0.00135
G1 X199.577 Y25.858 E0.20239
G1 X202.897 Y27.192 E0.37292
G1 X206.189 Y28.596 E0.37294
G1 X209.450 Y30.068 E0.37291
G1 X211.718 Y31.150 E0.26190
G1 X211.666 Y31.273 E0.01393
G1 X217.466 Y34.330 E0.68332
G1 X219.187 Y35.274 E0.20456
G1 X220.011 Y39.626 E0.46162
G1 X218.273 Y44.947 E0.58340
G1 F8640
G1 X216.132 Y43.100 E-0.65286
G1 X215.782 Y42.795 E-0.10714
G1 E-0.04000 F2100.00000
G1 Z0.900 F10800.000
G1 X218.612 Y46.601
G1 Z0.300
G1 E0.80000 F2100.00000
G1 F1200
G1 X217.773 Y45.772 E0.12292
G1 X215.572 Y43.721 E0.31355
G1 X213.301 Y41.739 E0.31415
G1 X210.965 Y39.834 E0.31415
G1 X208.568 Y38.007 E0.31415
G1 X206.112 Y36.260 E0.31415
G1 X203.599 Y34.595 E0.31415
G1 X201.033 Y33.014 E0.31415
G1 X198.416 Y31.519 E0.31415
G1 X195.751 Y30.110 E0.31415
G1 X193.041 Y28.791 E0.31415
G1 X190.288 Y27.562 E0.31415
G1 X187.497 Y26.425 E0.31415
G1 X184.670 Y25.380 E0.31415
G1 X181.809 Y24.429 E0.31415
G1 X178.919 Y23.574 E0.31415
G1 X176.002 Y22.814 E0.31415
G1 X173.062 Y22.151 E0.31415
G1 X170.101 Y21.585 E0.31415
G1 X167.124 Y21.118 E0.31415
G1 X164.132 Y20.749 E0.31415
G1 X161.130 Y20.479 E0.31415
G1 X158.121 Y20.309 E0.31415
G1 X155.107 Y20.238 E0.31415
G1 X152.093 Y20.266 E0.31415
G1 X149.082 Y20.394 E0.31415
G1 X146.076 Y20.622 E0.31415
G1 X143.080 Y20.948 E0.31415
G1 X140.096 Y21.374 E0.31415
G1 X137.128 Y21.898 E0.31415
G1 X134.178 Y22.519 E0.31415
G1 X131.251 Y23.238 E0.31415
G1 X128.355 Y24.051 E0.31355
G1 X127.229 Y24.403 E0.12292
G1 X128.396 Y17.221 E0.75835
G1 X132.014 Y13.236 E0.56093
G1 X133.854 Y13.189 E0.19184
G1 X139.647 Y13.133 E0.60384
G1 X142.964 Y13.238 E0.34589
G1 X146.555 Y13.426 E0.37475
G1 X150.141 Y13.691 E0.37477
G1 X153.721 Y14.030 E0.37475
G1 X160.302 Y14.795 E0.69050
G1 X163.802 Y15.314 E0.36875
G1 X167.644 Y15.973 E0.40630
G1 X171.470 Y16.720 E0.40630
G1 X175.278 Y17.554 E0.40630
G1 X179.066 Y18.474 E0.40631
G1 X182.833 Y19.481 E0.40630
G1 X186.575 Y20.573 E0.40630
G1 X190.291 Y21.749 E0.40630
G1 X197.187 Y24.107 E0.75954
G1 X197.198 Y24.067 E0.00432
G1 X199.880 Y25.080 E0.29879
G1 X203.217 Y26.420 E0.37476
G1 X206.525 Y27.830 E0.37477
G1 X209.802 Y29.310 E0.37475
G1 X212.797 Y30.739 E0.34589
G1 X212.733 Y30.891 E0.01719
G1 X217.862 Y33.594 E0.60424
G1 X219.934 Y34.731 E0.24639
G1 X220.869 Y39.668 E0.52363
G1 X218.649 Y46.487 E0.74744
G1 F8640
G1 X217.773 Y45.772 E-0.26110
G1 X216.192 Y44.299 E-0.49890
G1 E-0.04000 F2100.00000
G1 Z0.900 F10800.000
G1 X218.989 Y48.136
G1 Z0.300
G1 E0.80000 F2100.00000
G1 F1200
G1 X217.194 Y46.375 E0.26210
G1 X215.013 Y44.341 E0.31084
G1 X212.762 Y42.378 E0.31127
G1 X210.448 Y40.490 E0.31127
G1 X208.073 Y38.680 E0.31127
G1 X205.639 Y36.949 E0.31127
G1 X203.149 Y35.299 E0.31127
G1 X200.606 Y33.733 E0.31127
G1 X198.013 Y32.251 E0.31127
G1 X195.373 Y30.856 E0.31127
G1 X192.687 Y29.549 E0.31127
G1 X189.960 Y28.331 E0.31127
G1 X187.195 Y27.204 E0.31127
G1 X184.393 Y26.169 E0.31127
G1 X181.559 Y25.227 E0.31127
G1 X178.695 Y24.379 E0.31127
G1 X175.805 Y23.626 E0.31127
G1 X172.892 Y22.969 E0.31127
G1 X169.958 Y22.409 E0.31127
G1 X167.008 Y21.945 E0.31127
G1 X164.044 Y21.580 E0.31127
G1 X161.069 Y21.313 E0.31127
G1 X158.087 Y21.144 E0.31127
G1 X155.102 Y21.073 E0.31127
G1 X152.115 Y21.102 E0.31127
G1 X149.131 Y21.229 E0.31127
G1 X146.153 Y21.454 E0.31127
G1 X143.184 Y21.778 E0.31127
G1 X140.227 Y22.199 E0.31127
G1 X137.286 Y22.718 E0.31127
G1 X134.364 Y23.334 E0.31127
G1 X131.464 Y24.046 E0.31127
G1 X128.592 Y24.852 E0.31084
G1 X126.188 Y25.604 E0.26250
G1 X127.608 Y16.924 E0.91661
G1 X127.673 Y16.789 E0.01565
G1 X127.771 Y16.664 E0.01659
G1 X131.635 Y12.410 E0.59898
G1 X133.840 Y12.354 E0.22980
G1 X138.874 Y12.311 E0.52471
G1 X138.877 Y12.273 E0.00397
G1 X142.999 Y12.403 E0.42988
G1 X146.608 Y12.592 E0.37658
G1 X150.211 Y12.858 E0.37661
G1 X153.808 Y13.199 E0.37659
G1 X159.814 Y13.897 E0.63012
G1 X159.816 Y13.878 E0.00198
G1 X163.934 Y14.489 E0.43388
G1 X167.794 Y15.151 E0.40828
G1 X171.639 Y15.902 E0.40829
G1 X175.466 Y16.740 E0.40829
G1 X176.138 Y16.903 E0.07210
G1 X179.273 Y17.665 E0.33620
G1 X183.058 Y18.676 E0.40829
G1 X186.818 Y19.773 E0.40829
G1 X190.553 Y20.956 E0.40828
G1 X196.617 Y23.029 E0.66801
G1 X196.636 Y22.962 E0.00728
G1 X200.184 Y24.301 E0.39519
G1 X203.536 Y25.648 E0.37659
G1 X206.860 Y27.065 E0.37660
G1 X210.154 Y28.552 E0.37658
G1 X213.876 Y30.328 E0.42987
G1 X213.800 Y30.509 E0.02044
G1 X218.258 Y32.858 E0.52516
G1 X220.682 Y34.189 E0.28822
G1 X221.701 Y39.572 E0.57108
G1 X221.708 Y39.747 E0.01821
G1 X221.660 Y39.959 E0.02262
G1 X219.027 Y48.022 E0.88407
G1 F8640
G1 X217.194 Y46.375 E-0.56891
G1 X216.589 Y45.811 E-0.19109
G1 E-0.04000 F2100.00000
G1 Z0.900 F10800.000
G1 X219.062 Y49.064
G1 Z0.300
G1 E0.80000 F2100.00000
G1 F1200
G1 X218.927 Y49.074 E0.01413
G1 X218.701 Y49.040 E0.02382
G1 X216.615 Y46.978 E0.30567
G1 X214.453 Y44.962 E0.30813
G1 X212.223 Y43.017 E0.30839
G1 X209.930 Y41.146 E0.30839
G1 X207.577 Y39.353 E0.30839
G1 X205.166 Y37.638 E0.30839
G1 X202.699 Y36.003 E0.30839
G1 X200.180 Y34.451 E0.30839
G1 X197.611 Y32.983 E0.30839
G1 X194.994 Y31.601 E0.30839
G1 X192.334 Y30.306 E0.30839
G1 X189.632 Y29.099 E0.30839
G1 X186.892 Y27.983 E0.30839
G1 X184.116 Y26.957 E0.30839
G1 X181.308 Y26.024 E0.30839
M73 Q1 S57
G1 X178.471 Y25.184 E0.30839
G1 X175.608 Y24.438 E0.30839
G1 X172.721 Y23.787 E0.30839
M73 P1 R56
G1 X169.815 Y23.232 E0.30839
G1 X166.892 Y22.773 E0.30839
G1 X163.955 Y22.411 E0.30839
G1 X161.008 Y22.146 E0.30839
G1 X158.054 Y21.979 E0.30839
G1 X155.096 Y21.909 E0.30839
G1 X152.137 Y21.937 E0.30839
G1 X149.181 Y22.063 E0.30839
G1 X146.230 Y22.286 E0.30839
G1 X143.288 Y22.607 E0.30839
G1 X140.359 Y23.024 E0.30839
G1 X137.445 Y23.539 E0.30839
G1 X134.550 Y24.149 E0.30839
G1 X131.676 Y24.854 E0.30839
G1 X128.830 Y25.654 E0.30813
G1 X126.030 Y26.528 E0.30567
G1 X125.939 Y26.507 E0.00976
G1 X125.698 Y26.385 E0.02817
G1 X125.507 Y26.194 E0.02816
G1 X125.436 Y26.078 E0.01413
G1 X125.353 Y25.821 E0.02816
G1 X125.343 Y25.686 E0.01412
G1 X125.359 Y25.492 E0.02026
G1 X126.751 Y16.916 E0.90557
G1 X126.809 Y16.673 E0.02602
G1 X126.881 Y16.491 E0.02042
G1 X126.978 Y16.321 E0.02042
G1 X127.132 Y16.124 E0.02601
G1 X131.257 Y11.583 E0.63935
G1 X133.825 Y11.518 E0.26777
G1 X138.101 Y11.482 E0.44563
G1 X138.107 Y11.413 E0.00723
G1 X143.035 Y11.568 E0.51386
G1 X146.660 Y11.758 E0.37842
G1 X150.282 Y12.025 E0.37844
G1 X153.896 Y12.368 E0.37842
G1 X159.049 Y12.967 E0.54067
G1 X159.053 Y12.921 E0.00487
G1 X164.066 Y13.664 E0.52814
G1 X167.945 Y14.329 E0.41027
G1 X171.809 Y15.084 E0.41027
G1 X175.654 Y15.925 E0.41027
G1 X176.336 Y16.091 E0.07309
G1 X179.479 Y16.855 E0.33719
G1 X183.282 Y17.871 E0.41027
G1 X187.061 Y18.974 E0.41027
G1 X190.814 Y20.162 E0.41027
G1 X196.048 Y21.952 E0.57648
G1 X196.074 Y21.857 E0.01024
G1 X200.487 Y23.522 E0.49159
G1 X203.856 Y24.876 E0.37842
G1 X207.196 Y26.300 E0.37844
G1 X210.505 Y27.794 E0.37842
G1 X214.955 Y29.917 E0.51386
G1 X214.867 Y30.127 E0.02370
G1 X218.654 Y32.122 E0.44608
G1 X221.431 Y33.651 E0.33043
G1 X222.529 Y39.451 E0.61518
G1 X222.550 Y39.650 E0.02090
G1 X222.538 Y39.862 E0.02207
G1 X222.467 Y40.180 E0.03405
G1 X219.773 Y48.427 E0.90415
G1 X219.699 Y48.606 E0.02025
G1 X219.539 Y48.824 E0.02816
G1 X219.320 Y48.982 E0.02816
G1 X219.179 Y49.037 E0.01573
G1 F8640
G1 X218.927 Y49.074 E-0.05882
G1 X218.701 Y49.040 E-0.05276
G1 X216.704 Y47.066 E-0.64842
G1 E-0.04000 F2100.00000
G1 Z0.900 F10800.000
G1 X138.401 Y7.678
G1 Z0.300
G1 E0.80000 F2100.00000
G1 F720
G1 X138.472 Y6.780 E0.09391
G1 X138.588 Y6.789 E0.01217
G1 X138.426 Y7.561 E0.08219
G1 F8640
G1 X138.472 Y6.780 E-0.18062
G1 X138.588 Y6.789 E-0.02696
G1 X138.426 Y7.561 E-0.18209
G1 E-0.41033 F2100.00000
G1 Z0.900 F10800.000
G1 X159.345 Y9.211
G1 Z0.300
G1 E0.80000 F2100.00000
G1 F720
G1 X159.407 Y8.431 E0.08151
G1 X159.523 Y8.440 E0.01217
G1 X159.336 Y9.328 E0.09458
G1 F8640
G1 X159.407 Y8.431 E-0.20781
G1 X159.523 Y8.440 E-0.02696
G1 X159.336 Y9.328 E-0.20955
G1 E-0.35568 F2100.00000
G1 Z0.900 F10800.000
G1 X197.047 Y18.326
G1 Z0.300
G1 E0.80000 F2100.00000
G1 F720
G1 X197.289 Y17.451 E0.09470
G1 X197.397 Y17.496 E0.01217
G1 X197.094 Y18.216 E0.08141
G1 F8640
G1 X197.289 Y17.451 E-0.18235
G1 X197.397 Y17.496 E-0.02696
G1 X197.094 Y18.216 E-0.18035
G1 E-0.41034 F2100.00000
G1 Z0.900 F10800.000
G1 X216.648 Y25.587
G1 Z0.300
G1 E0.80000 F2100.00000
G1 F720
G1 X216.756 Y25.633 E0.01217
G1 X216.407 Y26.463 E0.09390
G1 X216.617 Y25.703 E0.08218
G1 F8640
G1 X216.756 Y25.633 E-0.03609
G1 X216.407 Y26.463 E-0.20804
G1 X216.617 Y25.703 E-0.18207
G1 E-0.37380 F2100.00000
G1 Z0.900 F10800.000
G1 X138.641 Y10.594
G1 Z0.300
G1 E0.80000 F2100.00000
G1 F840
G1 X143.070 Y10.733 E0.46178
G1 X146.713 Y10.924 E0.38025
G1 X150.352 Y11.193 E0.38027
G1 X153.984 Y11.537 E0.38026
G1 X158.284 Y12.037 E0.45122
G1 X158.640 Y7.532 E0.47095
G1 X160.537 Y7.682 E0.19836
G1 X159.595 Y12.156 E0.47654
G1 X164.197 Y12.838 E0.48495
G1 X168.096 Y13.507 E0.41225
G1 X171.978 Y14.265 E0.41225
G1 X175.842 Y15.111 E0.41226
G1 X176.533 Y15.279 E0.07408
G1 X179.686 Y16.045 E0.33819
G1 X183.507 Y17.066 E0.41225
G1 X187.305 Y18.174 E0.41225
G1 X191.076 Y19.368 E0.41225
G1 X195.478 Y20.874 E0.48495
G1 X196.736 Y16.312 E0.49319
G1 X198.491 Y17.049 E0.19836
G1 X196.740 Y21.215 E0.47095
